polaris-icons/icons/new-icons/BlockquoteMajor.svg

<svg width="20" height="20" viewBox="0 0 20 20" fill="none" xmlns="http://www.w3.org/2000/svg">
<path d="M11.75 4C11.3358 4 11 4.33579 11 4.75C11 5.16421 11.3358 5.5 11.75 5.5H16.25C16.6642 5.5 17 5.16421 17 4.75C17 4.33579 16.6642 4 16.25 4H11.75Z" fill="#4A4A4A"/>
<path d="M11 8.25C11 7.83579 11.3358 7.5 11.75 7.5H16.25C16.6642 7.5 17 7.83579 17 8.25C17 8.66421 16.6642 9 16.25 9H11.75C11.3358 9 11 8.66421 11 8.25Z" fill="#4A4A4A"/>
<path d="M3.75 11C3.33579 11 3 11.3358 3 11.75C3 12.1642 3.33579 12.5 3.75 12.5H16.25C16.6642 12.5 17 12.1642 17 11.75C17 11.3358 16.6642 11 16.25 11H3.75Z" fill="#4A4A4A"/>
<path d="M3.75 14.5C3.33579 14.5 3 14.8358 3 15.25C3 15.6642 3.33579 16 3.75 16H12.25C12.6642 16 13 15.6642 13 15.25C13 14.8358 12.6642 14.5 12.25 14.5H3.75Z" fill="#4A4A4A"/>
<path d="M3 8.75C3 9.30228 3.44772 9.75 4 9.75H5C5.55228 9.75 6 9.30228 6 8.75V7.75C6 7.19772 5.55228 6.75 5 6.75H4.5V5.75C4.5 5.61193 4.61193 5.5 4.75 5.5C5.16421 5.5 5.5 5.16421 5.5 4.75C5.5 4.33579 5.16421 4 4.75 4C3.7835 4 3 4.7835 3 5.75V8.75Z" fill="#4A4A4A"/>
<path d="M8.5 6.75V5.75C8.5 5.61193 8.61193 5.5 8.75 5.5C9.16421 5.5 9.5 5.16421 9.5 4.75C9.5 4.33579 9.16421 4 8.75 4C7.7835 4 7 4.7835 7 5.75V8.75C7 9.30228 7.44772 9.75 8 9.75H9C9.55228 9.75 10 9.30228 10 8.75V7.75C10 7.19772 9.55228 6.75 9 6.75H8.5Z" fill="#4A4A4A"/>
</svg>

<svg viewBox="0 0 20 20" xmlns="http://www.w3.org/2000/svg"><path d="M11.75 4a.75.75 0 0 0 0 1.5h4.5a.75.75 0 0 0 0-1.5h-4.5Z" fill="#5C5F62"/><path d="M11 8.25a.75.75 0 0 1 .75-.75h4.5a.75.75 0 0 1 0 1.5h-4.5a.75.75 0 0 1-.75-.75Z" fill="#5C5F62"/><path d="M3.75 11a.75.75 0 0 0 0 1.5h12.5a.75.75 0 0 0 0-1.5h-12.5Z" fill="#5C5F62"/><path d="M3.75 14.5a.75.75 0 0 0 0 1.5h8.5a.75.75 0 0 0 0-1.5h-8.5Z" fill="#5C5F62"/><path d="M3 8.75a1 1 0 0 0 1 1h1a1 1 0 0 0 1-1v-1a1 1 0 0 0-1-1h-.5v-1a.25.25 0 0 1 .25-.25.75.75 0 0 0 0-1.5 1.75 1.75 0 0 0-1.75 1.75v3Z" fill="#5C5F62"/><path d="M8.5 6.75v-1a.25.25 0 0 1 .25-.25.75.75 0 0 0 0-1.5 1.75 1.75 0 0 0-1.75 1.75v3a1 1 0 0 0 1 1h1a1 1 0 0 0 1-1v-1a1 1 0 0 0-1-1h-.5Z" fill="#5C5F62"/></svg>
